svg/fluentui-system-icons/ic_fluent_bot_sparkle_20_regular.svg

<svg width="20" height="20" viewBox="0 0 20 20" fill="none" xmlns="http://www.w3.org/2000/svg">
<path d="M12 5.5C11.4477 5.5 11 5.94772 11 6.5C11 7.05228 11.4477 7.5 12 7.5C12.5523 7.5 13 7.05228 13 6.5C13 5.94772 12.5523 5.5 12 5.5ZM7 6.5C7 5.94772 7.44772 5.5 8 5.5C8.55228 5.5 9 5.94772 9 6.5C9 7.05228 8.55228 7.5 8 7.5C7.44772 7.5 7 7.05228 7 6.5ZM10.5 2.5C10.5 2.22386 10.2761 2 10 2C9.72386 2 9.5 2.22386 9.5 2.5V3H6.5C5.67157 3 5 3.67157 5 4.5V8.5C5 9.32843 5.67157 10 6.5 10H12.7944L13.1196 9H6.5C6.22386 9 6 8.77614 6 8.5V4.5C6 4.22386 6.22386 4 6.5 4H13.5C13.7761 4 14 4.22386 14 4.5V8.08285C14.1527 8.02834 14.3145 8 14.4786 8C14.658 8 14.8348 8.03392 15 8.09893V4.5C15 3.67157 14.3284 3 13.5 3H10.5V2.5ZM8.5 11.5H10.4081C10.3549 11.5541 10.3059 11.6126 10.2617 11.6751C10.0915 11.9154 10 12.2027 10 12.4973L10 12.5031H5.3093C4.86233 12.5031 4.5 12.8654 4.5 13.3124V13.75C4.5 14.4396 4.63123 15.2064 5.30224 15.8187C5.98969 16.446 7.33946 17 10 17C11.5502 17 12.6553 16.8119 13.4438 16.5309C13.4944 16.5869 13.5495 16.6389 13.6088 16.6865C13.6311 16.7044 13.6542 16.7219 13.6782 16.7388C13.8135 16.8345 13.9637 16.9052 14.1216 16.9488C14.0573 17.0869 14.0176 17.2354 14.0047 17.3878C13.089 17.7549 11.8677 17.9777 10.25 17.9984V18H9.75V17.9984C7.13442 17.9649 5.55506 17.4031 4.6282 16.5574C3.75297 15.7588 3.53931 14.7813 3.50533 14.0019H3.5V13.3124C3.5 12.3131 4.31005 11.5031 5.3093 11.5031H8.5V11.5ZM14.8777 9.28225L15.226 10.3531C15.3343 10.6786 15.5171 10.9744 15.7599 11.217C16.0026 11.4596 16.2987 11.6422 16.6245 11.7504L17.6961 12.0985L17.7175 12.1038C17.8001 12.1329 17.8716 12.1869 17.9222 12.2584C17.9728 12.3298 18 12.4152 18 12.5027C18 12.5902 17.9728 12.6756 17.9222 12.747C17.8716 12.8184 17.8001 12.8724 17.7175 12.9016L16.6459 13.2496C16.3201 13.3578 16.0241 13.5404 15.7813 13.783C15.5385 14.0256 15.3558 14.3214 15.2475 14.647L14.8992 15.7178C14.87 15.8003 14.816 15.8718 14.7445 15.9223C14.673 15.9729 14.5876 16 14.5 16C14.4124 16 14.327 15.9729 14.2555 15.9223C14.2484 15.9173 14.2416 15.9121 14.2349 15.9067C14.1736 15.8575 14.1271 15.7921 14.1008 15.7178L13.7525 14.647C13.7338 14.5901 13.7128 14.5342 13.6897 14.4793C13.5796 14.2187 13.4202 13.9812 13.2197 13.78C13.1815 13.7417 13.1421 13.705 13.1014 13.6697C12.883 13.4806 12.6292 13.3359 12.3541 13.2442L11.2825 12.8962C11.1999 12.8671 11.1284 12.8131 11.0778 12.7416C11.0272 12.6702 11 12.5848 11 12.4973C11 12.4098 11.0272 12.3244 11.0778 12.253C11.1284 12.1816 11.1999 12.1276 11.2825 12.0985L12.3541 11.7504C12.6759 11.6394 12.9677 11.4555 13.2066 11.2131C13.4454 10.9707 13.625 10.6763 13.7311 10.3531L14.0794 9.28225C14.1085 9.19972 14.1626 9.12825 14.2341 9.0777C14.3056 9.02715 14.391 9 14.4786 9C14.5662 9 14.6516 9.02715 14.7231 9.0777C14.7946 9.12825 14.8486 9.19972 14.8777 9.28225ZM19.7829 17.2132L19.0175 16.9646C18.7848 16.8873 18.5733 16.7568 18.3999 16.5836C18.2265 16.4103 18.0959 16.199 18.0186 15.9665L17.7698 15.2016C17.749 15.1427 17.7104 15.0916 17.6593 15.0555C17.6083 15.0194 17.5473 15 17.4847 15C17.4221 15 17.3611 15.0194 17.31 15.0555C17.259 15.0916 17.2204 15.1427 17.1996 15.2016L16.9508 15.9665C16.875 16.1974 16.7467 16.4076 16.5761 16.5808C16.4055 16.7539 16.1971 16.8853 15.9672 16.9646L15.2018 17.2132C15.1428 17.234 15.0917 17.2726 15.0555 17.3236C15.0194 17.3746 15 17.4356 15 17.4981C15 17.5606 15.0194 17.6216 15.0555 17.6726C15.0917 17.7236 15.1428 17.7622 15.2018 17.783L15.9672 18.0316C16.2003 18.1093 16.412 18.2403 16.5855 18.4143C16.7589 18.5882 16.8893 18.8003 16.9661 19.0335L17.2149 19.7984C17.2357 19.8574 17.2743 19.9084 17.3254 19.9445C17.3764 19.9806 17.4374 20 17.5 20C17.5626 20 17.6236 19.9806 17.6746 19.9445C17.7257 19.9084 17.7643 19.8574 17.7851 19.7984L18.0339 19.0335C18.1113 18.801 18.2418 18.5897 18.4152 18.4164C18.5886 18.2432 18.8001 18.1127 19.0328 18.0354L19.7982 17.7868C19.8572 17.766 19.9083 17.7275 19.9445 17.6764C19.9806 17.6254 20 17.5644 20 17.5019C20 17.4394 19.9806 17.3784 19.9445 17.3274C19.9083 17.2764 19.8572 17.2378 19.7982 17.217L19.7829 17.2132ZM13.6088 16.6865L13.6782 16.7388Z" fill="#212121"/>
</svg>

<svg xmlns="http://www.w3.org/2000/svg" width="20" height="20"><path d="M12 5.5a1 1 0 1 0 0 2 1 1 0 0 0 0-2Zm-5 1a1 1 0 1 1 2 0 1 1 0 0 1-2 0Zm3.5-4a.5.5 0 0 0-1 0V3h-3A1.5 1.5 0 0 0 5 4.5v4A1.5 1.5 0 0 0 6.5 10h6.294l.326-1H6.5a.5.5 0 0 1-.5-.5v-4a.5.5 0 0 1 .5-.5h7a.5.5 0 0 1 .5.5v3.583a1.423 1.423 0 0 1 1 .016V4.5A1.5 1.5 0 0 0 13.5 3h-3v-.5Zm-2 9h1.908a1.415 1.415 0 0 0-.408.997v.006H5.31a.81.81 0 0 0-.81.81v.437c0 .69.131 1.456.802 2.069C5.99 16.446 7.34 17 10 17c1.55 0 2.655-.188 3.444-.47a1.422 1.422 0 0 0 .678.419 1.3 1.3 0 0 0-.117.439c-.916.367-2.137.59-3.755.61V18h-.5v-.002c-2.616-.033-4.195-.595-5.122-1.44-.875-.8-1.089-1.777-1.123-2.556H3.5v-.69c0-.999.81-1.809 1.81-1.809H8.5V11.5Zm6.378-2.218.348 1.071a2.206 2.206 0 0 0 1.399 1.397l1.071.348.021.006a.423.423 0 0 1 0 .798l-1.071.348a2.207 2.207 0 0 0-1.399 1.397l-.348 1.07a.423.423 0 0 1-.798 0l-.349-1.07a2.218 2.218 0 0 0-.65-.977 2.208 2.208 0 0 0-.748-.426l-1.071-.348a.423.423 0 0 1 0-.798l1.071-.348a2.208 2.208 0 0 0 1.377-1.397l.348-1.07a.423.423 0 0 1 .799 0Zm4.905 7.931-.766-.248a1.578 1.578 0 0 1-.998-.998l-.25-.765a.302.302 0 0 0-.57 0l-.248.764a1.576 1.576 0 0 1-.984.999l-.765.248a.303.303 0 0 0-.146.46c.036.05.087.09.146.11l.765.249a1.578 1.578 0 0 1 1 1.002l.248.764a.302.302 0 0 0 .57 0l.249-.764a1.576 1.576 0 0 1 .999-.999l.765-.248a.302.302 0 0 0 0-.57l-.015-.004Zm-6.174-.527.07.053Z"/></svg>
